docs/images/sunset.svg

<svg viewBox="-20 -65 640 640" xmlns="http://www.w3.org/2000/svg">
  <path d="m300 77c5.523438 0 10-4.476562 10-10v-60c0-5.523438-4.476562-10-10-10s-10 4.476562-10 10v60c0 5.523438 4.476562 10 10 10zm0 0"/>
  <path d="m202.738281 88.335938c2.113281 5.109374 7.96875 7.53125 13.074219 5.414062 5.101562-2.117188 7.523438-7.964844 5.40625-13.070312l-15.3125-36.953126c-2.210938-4.933593-7.945312-7.214843-12.945312-5.144531-5 2.070313-7.445313 7.746094-5.519532 12.796875zm0 0"/>
  <path d="m46.726562 202.917969 37.003907 15.300781c1.207031.503906 2.5.765625 3.808593.765625 4.773438 0 8.882813-3.371094 9.8125-8.054687.933594-4.675782-1.570312-9.363282-5.980468-11.191407l-36.953125-15.296875c-5.101563-2.113281-10.949219.3125-13.058594 5.414063-2.117187 5.105469.304687 10.953125 5.40625 13.0625zm0 0"/>
  <path d="m503.25 212.8125c1.550781 3.738281 5.203125 6.175781 9.25 6.171875 1.308594 0 2.601562-.261719 3.808594-.765625l37.003906-15.300781c5.101562-2.109375 7.527344-7.957031 5.414062-13.0625-2.117187-5.101563-7.964843-7.527344-13.066406-5.414063l-36.949218 15.296875c-2.460938 1.007813-4.417969 2.949219-5.445313 5.402344-1.023437 2.453125-1.03125 5.214844-.015625 7.671875zm0 0"/>
  <path d="m384.1875 93.75c5.105469 2.117188 10.960938-.304688 13.074219-5.414062l15.296875-36.996094c1.925781-5.058594-.519532-10.726563-5.519532-12.796875-5-2.070313-10.734374.210937-12.945312 5.144531l-15.3125 37.003906c-2.109375 5.097656.3125 10.941406 5.40625 13.058594zm0 0"/>
  <path d="m130.289062 141.429688c3.925782 3.789062 10.160157 3.734374 14.015626-.125 3.859374-3.855469 3.914062-10.089844.125-14.015626l-42.429688-42.417968c-2.488281-2.699219-6.253906-3.824219-9.8125-2.925782-3.558594.90625-6.335938 3.683594-7.242188 7.242188-.898437 3.558594.226563 7.324219 2.925782 9.8125zm0 0"/>
  <path d="m10 307h60c5.523438 0 10-4.476562 10-10s-4.476562-10-10-10h-60c-5.523438 0-10 4.476562-10 10s4.476562 10 10 10zm0 0"/>
  <path d="m520 297c0 5.523438 4.476562 10 10 10h60c5.523438 0 10-4.476562 10-10s-4.476562-10-10-10h-60c-5.523438 0-10 4.476562-10 10zm0 0"/>
  <path d="m462.640625 144.359375c2.652344 0 5.195313-1.054687 7.070313-2.929687l42.417968-42.429688c2.699219-2.488281 3.824219-6.253906 2.925782-9.8125-.90625-3.558594-3.683594-6.335938-7.242188-7.242188-3.558594-.898437-7.324219.226563-9.8125 2.925782l-42.417969 42.417968c-2.863281 2.859376-3.714843 7.164063-2.167969 10.898438 1.546876 3.734375 5.195313 6.171875 9.238282 6.171875zm0 0"/>
  <path d="m530 407h-460c-5.523438 0-10 4.476562-10 10s4.476562 10 10 10h460c5.523438 0 10-4.476562 10-10s-4.476562-10-10-10zm0 0"/>
  <path d="m480 447h-360c-5.523438 0-10 4.476562-10 10s4.476562 10 10 10h360c5.523438 0 10-4.476562 10-10s-4.476562-10-10-10zm0 0"/>
  <path d="m420 487h-240c-5.523438 0-10 4.476562-10 10s4.476562 10 10 10h240c5.523438 0 10-4.476562 10-10s-4.476562-10-10-10zm0 0"/>
  <path d="m590 367h-113.359375c31.40625-79.273438 6.164063-169.761719-61.753906-221.320312-67.914063-51.554688-161.859375-51.554688-229.773438 0-67.917969 51.558593-93.160156 142.046874-61.753906 221.320312h-113.359375c-5.523438 0-10 4.476562-10 10s4.476562 10 10 10h580c5.523438 0 10-4.476562 10-10s-4.476562-10-10-10zm0 0"/>
</svg>

<?xml version="1.0" encoding="UTF-8" standalone="no"?>
<!DOCTYPE svg PUBLIC "-//W3C//DTD SVG 1.1//EN" "http://www.w3.org/Graphics/SVG/1.1/DTD/svg11.dtd">
<svg width="100%" height="100%" viewBox="0 0 640 640" version="1.1" xmlns="http://www.w3.org/2000/svg" xmlns:xlink="http://www.w3.org/1999/xlink" xml:space="preserve" xmlns:serif="http://www.serif.com/" style="fill-rule:evenodd;clip-rule:evenodd;stroke-linejoin:round;stroke-miterlimit:2;">
    <g transform="matrix(1,0,0,1,20,65)">
        <path d="M300,77C305.523,77 310,72.523 310,67L310,7C310,1.477 305.523,-3 300,-3C294.477,-3 290,1.477 290,7L290,67C290,72.523 294.477,77 300,77Z" style="fill-rule:nonzero;"/>
    </g>
    <g transform="matrix(1,0,0,1,20,65)">
        <path d="M202.738,88.336C204.852,93.445 210.707,95.867 215.813,93.75C220.914,91.633 223.336,85.785 221.219,80.68L205.906,43.727C203.695,38.793 197.961,36.512 192.961,38.582C187.961,40.652 185.516,46.328 187.441,51.379L202.738,88.336Z" style="fill-rule:nonzero;"/>
    </g>
    <g transform="matrix(1,0,0,1,20,65)">
        <path d="M46.727,202.918L83.73,218.219C84.938,218.723 86.23,218.984 87.539,218.984C92.313,218.984 96.422,215.613 97.352,210.93C98.285,206.254 95.781,201.566 91.371,199.738L54.418,184.441C49.316,182.328 43.469,184.754 41.359,189.855C39.242,194.961 41.664,200.809 46.766,202.918L46.727,202.918Z" style="fill-rule:nonzero;"/>
    </g>
    <g transform="matrix(1,0,0,1,20,65)">
        <path d="M503.25,212.813C504.801,216.551 508.453,218.988 512.5,218.984C513.809,218.984 515.102,218.723 516.309,218.219L553.313,202.918C558.414,200.809 560.84,194.961 558.727,189.855C556.609,184.754 550.762,182.328 545.66,184.441L508.711,199.738C506.25,200.746 504.293,202.688 503.266,205.141C502.242,207.594 502.234,210.355 503.25,212.813Z" style="fill-rule:nonzero;"/>
    </g>
    <g transform="matrix(1,0,0,1,20,65)">
        <path d="M384.188,93.75C389.293,95.867 395.148,93.445 397.262,88.336L412.559,51.34C414.484,46.281 412.039,40.613 407.039,38.543C402.039,36.473 396.305,38.754 394.094,43.688L378.781,80.691C376.672,85.789 379.094,91.633 384.187,93.75Z" style="fill-rule:nonzero;"/>
    </g>
    <g transform="matrix(1,0,0,1,20,65)">
        <path d="M130.289,141.43C134.215,145.219 140.449,145.164 144.305,141.305C148.164,137.449 148.219,131.215 144.43,127.289L102,84.871C99.512,82.172 95.746,81.047 92.188,81.945C88.629,82.852 85.852,85.629 84.945,89.188C84.047,92.746 85.172,96.512 87.871,99L130.289,141.43Z" style="fill-rule:nonzero;"/>
    </g>
    <g transform="matrix(1,0,0,1,20,65)">
        <path d="M10,307L70,307C75.523,307 80,302.523 80,297C80,291.477 75.523,287 70,287L10,287C4.477,287 0,291.477 0,297C0,302.523 4.477,307 10,307Z" style="fill-rule:nonzero;"/>
    </g>
    <g transform="matrix(1,0,0,1,20,65)">
        <path d="M520,297C520,302.523 524.477,307 530,307L590,307C595.523,307 600,302.523 600,297C600,291.477 595.523,287 590,287L530,287C524.477,287 520,291.477 520,297Z" style="fill-rule:nonzero;"/>
    </g>
    <g transform="matrix(1,0,0,1,20,65)">
        <path d="M462.641,144.359C465.293,144.359 467.836,143.305 469.711,141.43L512.129,99C514.828,96.512 515.953,92.746 515.055,89.188C514.148,85.629 511.371,82.852 507.813,81.945C504.254,81.047 500.488,82.172 498,84.871L455.582,127.289C452.719,130.148 451.867,134.453 453.414,138.188C454.961,141.922 458.609,144.359 462.652,144.359L462.641,144.359Z" style="fill-rule:nonzero;"/>
    </g>
    <g transform="matrix(1,0,0,1,20,65)">
        <path d="M530,407L70,407C64.477,407 60,411.477 60,417C60,422.523 64.477,427 70,427L530,427C535.523,427 540,422.523 540,417C540,411.477 535.523,407 530,407Z" style="fill-rule:nonzero;"/>
    </g>
    <g transform="matrix(1,0,0,1,20,65)">
        <path d="M480,447L120,447C114.477,447 110,451.477 110,457C110,462.523 114.477,467 120,467L480,467C485.523,467 490,462.523 490,457C490,451.477 485.523,447 480,447Z" style="fill-rule:nonzero;"/>
    </g>
    <g transform="matrix(1,0,0,1,20,65)">
        <path d="M420,487L180,487C174.477,487 170,491.477 170,497C170,502.523 174.477,507 180,507L420,507C425.523,507 430,502.523 430,497C430,491.477 425.523,487 420,487Z" style="fill-rule:nonzero;"/>
    </g>
    <g transform="matrix(1,0,0,1,20,65)">
        <path d="M590,367L476.641,367C508.047,287.727 482.805,197.238 414.887,145.68C346.973,94.125 253.027,94.125 185.113,145.68C117.195,197.238 91.953,287.727 123.359,367L10,367C4.477,367 0,371.477 0,377C0,382.523 4.477,387 10,387L590,387C595.523,387 600,382.523 600,377C600,371.477 595.523,367 590,367Z" style="fill-rule:nonzero;"/>
    </g>
</svg>
